X:1
T:Title
%%score ( 1 2 ) { 3 | 4 }
L:1/8
Q:1/4=100
M:6/8
K:G
V:1 treble nm="Grand Piano, Soprano"
V:2 treble 
V:3 bass nm="Choir Pad, Slumber, Sweetly Slumber"
V:4 bass 
V:1
 [B,DB]2 [B,DB] [CDB]2 [CDA] | [B,DA]3 .[B,DG]3 | [DBd]2 [DBd] [DBd]2 [DAc] | [DGB]6 | %4
w: By~Adam~Geibel * * *||||
 [E^Ge]2 [EGe] [EGe]2 [EGd] | [EAd]3 .[EAc]3 | [^CGB]2 [CGA] [CGA]2 [CE] | A6 | .B3 .A3 | %9
w: |||||
 [GB]3 [Fd]2 D | .B3 .A3 | B3 .d3 | [=FG]2 [FG] [FG]>B[Fd] | [Ee]3 [EA]2 [EB] | %14
w: |||||
 [Ed]2 [Ec] [FB]2 [FA] | .G3 [FA]>B[Fc] | .[GB]3 [FA]>B[Fc] | .[Dd]3 [=FG]3 | [EG]3 [^DG]3 | %19
w: |||||
 [DB]6- | [DB]3 z3 |] %21
w: ||
V:2
 x6 | x6 | x6 | x6 | x6 | x6 | x6 | [CF]2 [CE] .[CD]3 | D2- [DB] F->[F-B][Fc] | x6 | %10
 D2- [DB] F->[F-B][Fc] | G6 | x6 | x6 | x6 | x6 | x6 | x6 | x6 | x6 | x6 |] %21
V:3
 G,,2 D, F,2 D, | G,,2 D, G,2 D, | D,,2 D, C2 F, | G,,2 D, B,2 D, | E,,2 E, D2 E, | A,,2 E, C2 E, | %6
 A,,2 E, A,2 E, | D,2 G, .F,3 | G,3 C2 A, | B,3 .A,3 | G,3 C2 A, | B,6 | B,2 B, B,2 G, | %13
 G,3 A,2 ^G, | A,2 A,[K:treble] D2 C | .B,3 C2 A, | .B,3 C2 A, | .G,3 D3 | C3 A,3 | B,6- | %20
 B,3 z3 |] %21
V:4
 z6 | z6 | z3 .F,3 | z3 .G,3 | z3 .B,3 | z3 .A,3 | z6 | D,,2 D, .D,3 | G,,3 D,3 | G,3 .D,3 | %10
 G,,3 D,3 | G,6 | G,2 G, G,2 G,, | C,3 C,2 B,, | A,,2 C, D,2 D, | .G,3 D,2 D, | .G,3 D,2 D, | %17
 .B,,3 B,,3 | C,3 C,3 | G,,6- | G,,3 z3 |] %21

